web/assets/img/functions/980_2-half.svg

<svg width="512" height="512" viewBox="0 0 512 512" fill="none" xmlns="http://www.w3.org/2000/svg">
    <path d="M405.89 78.48C405.895 78.4001 405.895 78.3199 405.89 78.24C405.89 77.98 405.79 77.74 405.73 77.5C405.67 77.256 405.597 77.0156 405.51 76.78C405.44 76.55 405.35 76.33 405.26 76.11C405.17 75.89 404.99 75.51 404.84 75.23C404.742 75.043 404.632 74.8626 404.51 74.69C404.516 74.6671 404.516 74.6429 404.51 74.62C404.46 74.54 404.42 74.47 404.36 74.39C404.3 74.31 404.11 74.02 403.97 73.84L403.81 73.64L353.89 9.84001C352.953 8.64221 351.756 7.67378 350.389 7.00838C349.021 6.34297 347.521 5.9981 346 6.00001H166C164.481 5.99962 162.982 6.34522 161.617 7.01057C160.251 7.67592 159.056 8.64354 158.12 9.84001L108.28 73.64L108.12 73.84C107.98 74.02 107.85 74.2 107.73 74.39C107.61 74.58 107.63 74.54 107.58 74.62C107.574 74.6429 107.574 74.6671 107.58 74.69C107.458 74.8626 107.348 75.043 107.25 75.23C107.1 75.51 106.96 75.81 106.83 76.11C106.7 76.41 106.65 76.55 106.58 76.78C106.493 77.0156 106.42 77.256 106.36 77.5C106.3 77.74 106.24 77.98 106.2 78.24C106.195 78.3199 106.195 78.4001 106.2 78.48C106.093 78.9806 106.026 79.4888 106 80V352C106 352.21 106 352.42 106 352.63V352.69C106 352.89 106 353.09 106.07 353.29C106.116 353.699 106.193 354.103 106.3 354.5C106.3 354.6 106.3 354.69 106.38 354.79C106.46 354.89 106.47 355.09 106.52 355.23C106.57 355.37 106.67 355.65 106.76 355.86C106.839 356.07 106.932 356.273 107.04 356.47C107.14 356.67 107.24 356.86 107.36 357.06C107.381 357.107 107.408 357.15 107.44 357.19L183.1 486H152C149.348 486 146.804 487.054 144.929 488.929C143.054 490.804 142 493.348 142 496C142 498.652 143.054 501.196 144.929 503.071C146.804 504.946 149.348 506 152 506H360C362.652 506 365.196 504.946 367.071 503.071C368.946 501.196 370 498.652 370 496C370 493.348 368.946 490.804 367.071 488.929C365.196 487.054 362.652 486 360 486H328.89L404.55 357.19C404.582 357.15 404.609 357.107 404.63 357.06C404.75 356.86 404.85 356.67 404.95 356.47C405.058 356.273 405.151 356.07 405.23 355.86C405.317 355.647 405.397 355.437 405.47 355.23C405.47 355.09 405.57 354.94 405.61 354.79C405.65 354.64 405.67 354.6 405.69 354.5C405.797 354.103 405.874 353.699 405.92 353.29C405.92 353.09 405.97 352.89 405.99 352.69V352.63C405.99 352.42 405.99 352.21 405.99 352V80C405.997 79.4915 405.963 78.9833 405.89 78.48ZM170.89 26H341.13L375.51 70H136.51L170.89 26ZM126 229.5L145.15 211.72L163.64 215.02L170.26 226.61C169.799 227.034 169.377 227.499 169 228L152 250.85L142.41 240.25C141.107 238.809 139.413 237.779 137.534 237.285C135.655 236.791 133.673 236.856 131.83 237.47L125.99 239.47L126 229.5ZM307.47 303.25L321 287.42L342.23 289.91L343.66 290.08L344.57 294.64L346.67 305.13L324.26 315.13C323.415 313.07 321.9 311.354 319.96 310.26L307.47 303.25ZM312.57 342H246.15L272.08 316.07L272.15 316H289.38L306.84 325.87L312.57 342ZM306.57 273.5L287.4 296H269.4L257.8 274.11L255.97 253.11L277.66 230.61L303 234.24L306.13 239.24L310.5 246.24L315.65 254.54L306.57 273.5ZM241.57 239.24L220.43 225.6C218.814 224.551 216.927 223.995 215 224L228.29 202.48L261 205.24L261.9 218.24L241.57 239.24ZM236.47 259.75L238.05 277.87C238.163 279.207 238.548 280.507 239.18 281.69L252.71 307.16L232.47 327.4L212.72 342H160.81L163.72 318L173.87 298.62C174.556 297.311 174.943 295.866 175.003 294.389C175.064 292.913 174.796 291.441 174.22 290.08L164.64 267.44L182 244H212L236.47 259.75ZM126 260.54L132 258.54L145.48 273.44L153.98 293.53L145.17 310.35C144.611 311.424 144.248 312.589 144.1 313.79L140.66 342H126V260.54ZM306.29 485H205.71L133.48 362H378.54L306.29 485ZM386 342H333.78L331 334.06L362.13 320.13C364.202 319.197 365.894 317.587 366.928 315.564C367.963 313.541 368.277 311.226 367.82 309L364.16 290.7L386 271.93V342ZM386 245.55L355.63 271.69C354.841 271.376 354.014 271.168 353.17 271.07L331.17 268.48L336 258.33C336.727 256.815 337.06 255.141 336.969 253.463C336.878 251.786 336.366 250.158 335.48 248.73L328.59 237.63L343.86 216.54L364 204.64L386 217.86V245.55ZM386 194.55L369.14 184.43C367.592 183.507 365.823 183.02 364.02 183.02C362.217 183.02 360.448 183.507 358.9 184.43L331.9 200.43C330.723 201.124 329.701 202.053 328.9 203.16L317.21 219.31C316.424 218.184 315.415 217.231 314.245 216.512C313.075 215.793 311.77 215.323 310.41 215.13L281.41 210.99L280.32 195.34C280.154 192.958 279.141 190.714 277.465 189.014C275.789 187.314 273.559 186.27 271.18 186.07L223.85 182.07C222.008 181.914 220.16 182.272 218.509 183.104C216.859 183.935 215.471 185.208 214.5 186.78L193.5 220.78C192.881 221.778 192.444 222.879 192.21 224.03H191.54C191.335 223.333 191.05 222.661 190.69 222.03L178.69 201.03C177.964 199.76 176.968 198.665 175.772 197.821C174.576 196.978 173.21 196.408 171.77 196.15L143.77 191.15C142.246 190.877 140.68 190.962 139.195 191.398C137.709 191.833 136.345 192.608 135.21 193.66L126.01 202.2V90H386V194.55Z"
          fill="#282828"/>
    <path d="M176.012 54H168.012C162.489 54 158.012 58.4772 158.012 64V112C158.012 117.523 162.489 122 168.012 122H176.012C181.535 122 186.012 117.523 186.012 112V64C186.012 58.4772 181.535 54 176.012 54Z"
          fill="#12A71E"/>
    <path d="M336.012 54H328.012C322.489 54 318.012 58.4772 318.012 64V112C318.012 117.523 322.489 122 328.012 122H336.012C341.535 122 346.012 117.523 346.012 112V64C346.012 58.4772 341.535 54 336.012 54Z"
          fill="#12A71E"/>
    <path d="M296.001 466H215.001C212.8 466 210.66 465.274 208.914 463.934C207.167 462.595 205.911 460.716 205.341 458.59L190.341 402.59C189.944 401.108 189.893 399.555 190.192 398.05C190.491 396.545 191.132 395.13 192.066 393.913C193 392.695 194.202 391.71 195.578 391.031C196.953 390.353 198.467 390 200.001 390H313.001C314.564 390 316.104 390.365 317.5 391.068C318.895 391.77 320.107 392.79 321.037 394.045C321.968 395.3 322.591 396.756 322.858 398.295C323.124 399.835 323.026 401.415 322.571 402.91L305.571 458.91C304.947 460.962 303.68 462.759 301.957 464.035C300.234 465.312 298.146 466.001 296.001 466ZM222.681 446H288.601L299.521 410H213.001L222.681 446Z"
          fill="#282828"/>
    <path d="M344.539 294.64L344.429 294.52C343.298 293.203 342.53 291.614 342.199 289.91L343.629 290.08L344.539 294.64Z" fill="#282828"/>
    <path d="M310.471 246.32L310.141 246.1C309.045 245.295 308.126 244.275 307.438 243.102C306.75 241.93 306.309 240.629 306.141 239.28L310.471 246.32Z"
          fill="#282828"/>
</svg>

<?xml version="1.0" encoding="utf-8"?>
<!-- Generator: Adobe Illustrator 28.2.0, SVG Export Plug-In . SVG Version: 6.00 Build 0)  -->
<svg version="1.1" id="Calque_1" xmlns="http://www.w3.org/2000/svg" xmlns:xlink="http://www.w3.org/1999/xlink" x="0px" y="0px"
	 viewBox="0 0 512 512" style="enable-background:new 0 0 512 512;" xml:space="preserve">
<style type="text/css">
	.st0{fill:#282828;}
	.st1{fill:#33B0DF;}
</style>
<path class="st0" d="M405.9,78.5c0-0.1,0-0.2,0-0.2c0-0.3-0.1-0.5-0.2-0.7c-0.1-0.2-0.1-0.5-0.2-0.7c-0.1-0.2-0.2-0.4-0.2-0.7
	s-0.3-0.6-0.4-0.9c-0.1-0.2-0.2-0.4-0.3-0.5c0,0,0,0,0-0.1c-0.1-0.1-0.1-0.2-0.2-0.2c-0.1-0.1-0.2-0.4-0.4-0.6l-0.2-0.2L353.9,9.8
	c-0.9-1.2-2.1-2.2-3.5-2.8c-1.4-0.7-2.9-1-4.4-1H166c-1.5,0-3,0.3-4.4,1c-1.4,0.7-2.6,1.6-3.5,2.8l-49.8,63.8l-0.2,0.2
	c-0.1,0.2-0.3,0.4-0.4,0.6c-0.1,0.2-0.1,0.2-0.2,0.2c0,0,0,0,0,0.1c-0.1,0.2-0.2,0.4-0.3,0.5c-0.2,0.3-0.3,0.6-0.4,0.9
	c-0.1,0.3-0.2,0.4-0.2,0.7c-0.1,0.2-0.2,0.5-0.2,0.7c-0.1,0.2-0.1,0.5-0.2,0.7c0,0.1,0,0.2,0,0.2c-0.1,0.5-0.2,1-0.2,1.5v272
	c0,0.2,0,0.4,0,0.6v0.1c0,0.2,0,0.4,0.1,0.6c0,0.4,0.1,0.8,0.2,1.2c0,0.1,0,0.2,0.1,0.3c0.1,0.1,0.1,0.3,0.1,0.4
	c0.1,0.1,0.2,0.4,0.2,0.6c0.1,0.2,0.2,0.4,0.3,0.6c0.1,0.2,0.2,0.4,0.3,0.6c0,0,0,0.1,0.1,0.1L183.1,486H152c-2.7,0-5.2,1.1-7.1,2.9
	s-2.9,4.4-2.9,7.1s1.1,5.2,2.9,7.1s4.4,2.9,7.1,2.9h208c2.7,0,5.2-1.1,7.1-2.9s2.9-4.4,2.9-7.1s-1.1-5.2-2.9-7.1s-4.4-2.9-7.1-2.9
	h-31.1l75.7-128.8c0,0,0.1-0.1,0.1-0.1c0.1-0.2,0.2-0.4,0.3-0.6c0.1-0.2,0.2-0.4,0.3-0.6c0.1-0.2,0.2-0.4,0.2-0.6
	c0-0.1,0.1-0.3,0.1-0.4c0-0.1,0.1-0.2,0.1-0.3c0.1-0.4,0.2-0.8,0.2-1.2c0-0.2,0-0.4,0.1-0.6v-0.1c0-0.2,0-0.4,0-0.6V80
	C406,79.5,406,79,405.9,78.5z M170.9,26h170.2l34.4,44h-239L170.9,26z M126,229.5l19.1-17.8l18.5,3.3l6.6,11.6
	c-0.5,0.4-0.9,0.9-1.3,1.4l-17,22.9l-9.6-10.6c-1.3-1.4-3-2.5-4.9-3s-3.9-0.4-5.7,0.2l-5.8,2L126,229.5z M307.5,303.2l13.5-15.8
	l21.2,2.5l1.4,0.2l0.9,4.6l2.1,10.5l-22.4,10c-0.8-2.1-2.4-3.8-4.3-4.9L307.5,303.2z M312.6,342h-66.4l25.9-25.9l0.1-0.1h17.2
	l17.5,9.9L312.6,342z M306.6,273.5L287.4,296h-18l-11.6-21.9l-1.8-21l21.7-22.5l25.3,3.6l3.1,5l4.4,7l5.1,8.3L306.6,273.5z
	 M241.6,239.2l-21.1-13.6c-1.6-1-3.5-1.6-5.4-1.6l13.3-21.5l32.7,2.8l0.9,13L241.6,239.2z M236.5,259.8l1.6,18.1
	c0.1,1.3,0.5,2.6,1.1,3.8l13.5,25.5l-20.2,20.2L212.7,342h-51.9l2.9-24l10.1-19.4c0.7-1.3,1.1-2.8,1.1-4.2c0.1-1.5-0.2-2.9-0.8-4.3
	l-9.6-22.6L182,244h30L236.5,259.8z M126,260.5l6-2l13.5,14.9l8.5,20.1l-8.8,16.8c-0.6,1.1-0.9,2.2-1.1,3.4l-3.4,28.2H126V260.5z
	 M306.3,485H205.7l-72.2-123h245.1L306.3,485z M386,342h-52.2l-2.8-7.9l31.1-13.9c2.1-0.9,3.8-2.5,4.8-4.6c1-2,1.3-4.3,0.9-6.6
	l-3.7-18.3l21.8-18.8V342z M386,245.6l-30.4,26.1c-0.8-0.3-1.6-0.5-2.5-0.6l-22-2.6l4.8-10.2c0.7-1.5,1.1-3.2,1-4.9
	c-0.1-1.7-0.6-3.3-1.5-4.7l-6.9-11.1l15.3-21.1l20.1-11.9l22,13.2V245.6z M386,194.6l-16.9-10.1c-1.5-0.9-3.3-1.4-5.1-1.4
	c-1.8,0-3.6,0.5-5.1,1.4l-27,16c-1.2,0.7-2.2,1.6-3,2.7l-11.7,16.1c-0.8-1.1-1.8-2.1-3-2.8c-1.2-0.7-2.5-1.2-3.8-1.4l-29-4.1
	l-1.1-15.7c-0.2-2.4-1.2-4.6-2.9-6.3c-1.7-1.7-3.9-2.7-6.3-2.9l-47.3-4c-1.8-0.2-3.7,0.2-5.3,1c-1.7,0.8-3,2.1-4,3.7l-21,34
	c-0.6,1-1.1,2.1-1.3,3.2h-0.7c-0.2-0.7-0.5-1.4-0.8-2l-12-21c-0.7-1.3-1.7-2.4-2.9-3.2c-1.2-0.8-2.6-1.4-4-1.7l-28-5
	c-1.5-0.3-3.1-0.2-4.6,0.2c-1.5,0.4-2.9,1.2-4,2.3l-9.2,8.5V90h260V194.6z"/>
<path class="st1" d="M176,54h-8c-5.5,0-10,4.5-10,10v48c0,5.5,4.5,10,10,10h8c5.5,0,10-4.5,10-10V64C186,58.5,181.5,54,176,54z"/>
<path class="st1" d="M336,54h-8c-5.5,0-10,4.5-10,10v48c0,5.5,4.5,10,10,10h8c5.5,0,10-4.5,10-10V64C346,58.5,341.5,54,336,54z"/>
<path class="st0" d="M296,466h-81c-2.2,0-4.3-0.7-6.1-2.1c-1.7-1.3-3-3.2-3.6-5.3l-15-56c-0.4-1.5-0.4-3-0.1-4.5
	c0.3-1.5,0.9-2.9,1.9-4.1c0.9-1.2,2.1-2.2,3.5-2.9c1.4-0.7,2.9-1,4.4-1h113c1.6,0,3.1,0.4,4.5,1.1c1.4,0.7,2.6,1.7,3.5,3
	c0.9,1.3,1.6,2.7,1.8,4.2c0.3,1.5,0.2,3.1-0.3,4.6l-17,56c-0.6,2.1-1.9,3.8-3.6,5.1C300.2,465.3,298.1,466,296,466z M222.7,446h65.9
	l10.9-36H213L222.7,446z"/>
<path class="st0" d="M344.5,294.6l-0.1-0.1c-1.1-1.3-1.9-2.9-2.2-4.6l1.4,0.2L344.5,294.6z"/>
<path class="st0" d="M310.5,246.3l-0.3-0.2c-1.1-0.8-2-1.8-2.7-3c-0.7-1.2-1.1-2.5-1.3-3.8L310.5,246.3z"/>
</svg>
